X: 24511
T: Lucy Farr's
R: barndance
M: 4/4
K: Gmajor
G2 G2 G2 G2|F>GA>F G4|B2 B2 B2 B2|A>Bc>A B4||
c>de>c A2 A2|b>cd>B G2 G2|A>Bc>A F>DE>F|1 G>AB>c d2 d2:|

